apps/frontend/src/icons/business_finance_service_money_customer.svg

<svg width="24" height="24" viewBox="0 0 24 24" fill="none" xmlns="http://www.w3.org/2000/svg">
<path d="M11.691 16.2914C10.4122 16.2914 9.17145 15.4608 8.19692 13.9519C7.38599 12.6961 6.88208 11.1253 6.88208 9.85218C6.88208 8.57678 7.38873 7.35361 8.29058 6.45177C9.19242 5.54993 10.4156 5.04327 11.691 5.04327C12.9664 5.04327 14.1896 5.54993 15.0914 6.45177C15.9932 7.35361 16.4999 8.57678 16.4999 9.85218C16.4999 11.1253 15.996 12.6961 15.1846 13.9519C14.2105 15.4608 12.9697 16.2914 11.691 16.2914ZM11.691 6.44999C10.7889 6.45099 9.9241 6.80973 9.28621 7.44754C8.64831 8.08534 8.28945 8.95013 8.28833 9.85218C8.28833 10.8539 8.7163 12.1636 9.37864 13.1892C10.0743 14.2673 10.9171 14.8851 11.691 14.8851C12.4649 14.8851 13.3072 14.2669 14.0033 13.1892C14.6657 12.1636 15.0936 10.8539 15.0936 9.85218C15.0925 8.95013 14.7337 8.08534 14.0958 7.44754C13.4579 6.80973 12.593 6.45099 11.691 6.44999Z" fill="#DBE2E6"/>
<path d="M7.5848 12.8958C7.18202 12.9008 6.78226 12.8258 6.4087 12.6751C6.03513 12.5244 5.6952 12.3011 5.40861 12.018C5.12202 11.735 4.89448 11.3978 4.73918 11.0261C4.58388 10.6545 4.50391 10.2557 4.50391 9.85288C4.50391 9.45007 4.58388 9.05127 4.73918 8.67961C4.89448 8.30794 5.12202 7.97081 5.40861 7.68775C5.6952 7.4047 6.03513 7.18136 6.4087 7.03068C6.78226 6.88 7.18202 6.80499 7.5848 6.80999C7.87686 6.81025 8.16741 6.85191 8.44777 6.93374C8.53729 6.95872 8.62097 7.00121 8.69396 7.05874C8.76696 7.11627 8.82783 7.1877 8.87304 7.2689C8.91826 7.3501 8.94693 7.43946 8.9574 7.53181C8.96786 7.62416 8.95991 7.71767 8.93401 7.80693C8.90811 7.89618 8.86477 7.97942 8.8065 8.05183C8.74822 8.12423 8.67618 8.18436 8.59452 8.22875C8.51286 8.27313 8.42321 8.30089 8.33076 8.31041C8.2383 8.31992 8.14488 8.31102 8.05589 8.28421C7.90286 8.23941 7.74425 8.21652 7.5848 8.21624C7.36754 8.21256 7.15173 8.25218 6.94994 8.33278C6.74815 8.41337 6.56443 8.53334 6.40949 8.68568C6.25455 8.83802 6.13149 9.01969 6.04749 9.22008C5.96349 9.42048 5.92022 9.63559 5.92022 9.85288C5.92022 10.0702 5.96349 10.2853 6.04749 10.4857C6.13149 10.6861 6.25455 10.8677 6.40949 11.0201C6.56443 11.1724 6.74815 11.2924 6.94994 11.373C7.15173 11.4536 7.36754 11.4932 7.5848 11.4895C7.69696 11.4897 7.80882 11.478 7.91855 11.4548C8.10111 11.4167 8.29136 11.4526 8.44744 11.5547C8.60352 11.6568 8.71265 11.8167 8.75081 11.9993C8.78898 12.1818 8.75306 12.3721 8.65096 12.5282C8.54885 12.6843 8.38893 12.7934 8.20636 12.8316C8.00191 12.8741 7.79364 12.8957 7.5848 12.8958Z" fill="#DBE2E6"/>
<path d="M18.1367 10.8577C17.9502 10.8577 17.7714 10.7836 17.6395 10.6517C17.5076 10.5199 17.4336 10.341 17.4336 10.1545C17.4336 6.57141 14.8592 3.65625 11.6909 3.65625C8.52262 3.65625 5.94824 6.57141 5.94824 10.1545C5.94824 10.341 5.87416 10.5199 5.7423 10.6517C5.61044 10.7836 5.4316 10.8577 5.24512 10.8577C5.05864 10.8577 4.87979 10.7836 4.74793 10.6517C4.61607 10.5199 4.54199 10.341 4.54199 10.1545C4.54199 5.79609 7.74918 2.25 11.6909 2.25C15.6326 2.25 18.8398 5.79609 18.8398 10.1545C18.8398 10.341 18.7657 10.5199 18.6339 10.6517C18.502 10.7836 18.3232 10.8577 18.1367 10.8577Z" fill="#DBE2E6"/>
<path d="M15.7967 12.8958C15.6136 12.8959 15.4308 12.8794 15.2506 12.8466H12.8459C12.6595 12.8466 12.4806 12.7725 12.3488 12.6406C12.2169 12.5087 12.1428 12.3299 12.1428 12.1434C12.1428 11.9569 12.2169 11.7781 12.3488 11.6462C12.4806 11.5144 12.6595 11.4403 12.8459 11.4403H15.3191C15.3679 11.4404 15.4166 11.4454 15.4644 11.4553C15.5737 11.4783 15.6851 11.4898 15.7967 11.4895C16.014 11.4932 16.2298 11.4536 16.4316 11.373C16.6334 11.2924 16.8171 11.1724 16.972 11.0201C17.127 10.8677 17.25 10.6861 17.334 10.4857C17.418 10.2853 17.4613 10.0702 17.4613 9.85288C17.4613 9.63559 17.418 9.42048 17.334 9.22008C17.25 9.01969 17.127 8.83802 16.972 8.68568C16.8171 8.53334 16.6334 8.41337 16.4316 8.33278C16.2298 8.25218 16.014 8.21256 15.7967 8.21624C15.6381 8.21674 15.4803 8.23963 15.328 8.28421C15.1489 8.33623 14.9565 8.31499 14.7931 8.22515C14.6296 8.13531 14.5086 7.98423 14.4566 7.80514C14.4045 7.62606 14.4258 7.43364 14.5156 7.27022C14.6055 7.1068 14.7566 6.98577 14.9356 6.93374C15.2154 6.85214 15.5053 6.81047 15.7967 6.80999C16.1995 6.80499 16.5993 6.88 16.9728 7.03068C17.3464 7.18136 17.6863 7.4047 17.9729 7.68775C18.2595 7.97081 18.487 8.30794 18.6424 8.67961C18.7977 9.05127 18.8776 9.45007 18.8776 9.85288C18.8776 10.2557 18.7977 10.6545 18.6424 11.0261C18.487 11.3978 18.2595 11.735 17.9729 12.018C17.6863 12.3011 17.3464 12.5244 16.9728 12.6751C16.5993 12.8258 16.1995 12.9008 15.7967 12.8958Z" fill="#DBE2E6"/>
<path d="M17.9868 21.0938H5.39473C5.22404 21.0937 5.05918 21.0316 4.93093 20.9189C4.80268 20.8063 4.71978 20.6508 4.6977 20.4816L4.49989 18.968C4.41147 18.2945 4.5377 17.6104 4.86062 17.0129C5.18354 16.4153 5.68669 15.9349 6.29848 15.6398L9.46161 14.1094C9.54499 14.0668 9.63603 14.0412 9.72941 14.0343C9.8228 14.0273 9.91662 14.0391 10.0054 14.0689C10.0942 14.0987 10.1761 14.1459 10.2464 14.2078C10.3166 14.2697 10.3738 14.345 10.4146 14.4293C10.4554 14.5136 10.4789 14.6052 10.4838 14.6987C10.4887 14.7922 10.4749 14.8857 10.4431 14.9738C10.4114 15.0619 10.3624 15.1428 10.2989 15.2117C10.2355 15.2806 10.159 15.3361 10.0738 15.375L6.91161 16.9036C6.56584 17.0702 6.28147 17.3417 6.099 17.6794C5.91653 18.017 5.84527 18.4037 5.89536 18.7842L6.01255 19.6852H17.3694L17.4866 18.7842C17.5366 18.4037 17.4652 18.0171 17.2828 17.6795C17.1003 17.3418 16.816 17.0703 16.4704 16.9036L13.3082 15.375C13.2206 15.3378 13.1415 15.2833 13.0756 15.2146C13.0098 15.146 12.9585 15.0647 12.925 14.9757C12.8915 14.8867 12.8764 14.7918 12.8806 14.6967C12.8848 14.6017 12.9082 14.5085 12.9495 14.4228C12.9907 14.3371 13.049 14.2606 13.1206 14.1981C13.1923 14.1355 13.2759 14.0882 13.3664 14.0589C13.4569 14.0296 13.5524 14.0189 13.6472 14.0276C13.7419 14.0363 13.8339 14.0641 13.9175 14.1094L17.0797 15.638C17.6916 15.9329 18.1949 16.4133 18.5179 17.0109C18.8409 17.6084 18.9672 18.2926 18.8788 18.9661L18.6819 20.4797C18.6603 20.649 18.5779 20.8046 18.45 20.9176C18.3221 21.0306 18.1574 21.0932 17.9868 21.0938Z" fill="#DBE2E6"/>
</svg>

<svg xmlns="http://www.w3.org/2000/svg" width="24" height="24" fill="none"><path fill="#DBE2E6" d="M11.691 16.291c-1.279 0-2.52-.83-3.494-2.34-.811-1.255-1.315-2.826-1.315-4.099a4.809 4.809 0 1 1 9.618 0c0 1.273-.504 2.844-1.315 4.1-.975 1.509-2.215 2.34-3.494 2.34m0-9.841a3.406 3.406 0 0 0-3.403 3.402c0 1.002.428 2.312 1.09 3.337.696 1.078 1.54 1.696 2.313 1.696s1.616-.618 2.312-1.696c.663-1.025 1.09-2.335 1.09-3.337a3.406 3.406 0 0 0-3.402-3.402"/><path fill="#DBE2E6" d="M7.585 12.896a3.043 3.043 0 1 1 0-6.086q.44 0 .863.124a.703.703 0 1 1-.392 1.35 1.7 1.7 0 0 0-.471-.068 1.637 1.637 0 1 0 0 3.274 1.6 1.6 0 0 0 .334-.035.704.704 0 0 1 .287 1.377 3 3 0 0 1-.621.064"/><path fill="#DBE2E6" d="M18.137 10.858a.703.703 0 0 1-.703-.703c0-3.584-2.575-6.499-5.743-6.499s-5.743 2.915-5.743 6.499a.703.703 0 1 1-1.406 0c0-4.359 3.207-7.905 7.149-7.905s7.149 3.546 7.149 7.905a.703.703 0 0 1-.703.703"/><path fill="#DBE2E6" d="M15.797 12.896a3 3 0 0 1-.546-.05h-2.405a.703.703 0 0 1 0-1.406h2.473q.074 0 .145.015.165.035.333.034a1.636 1.636 0 1 0 0-3.273q-.24.001-.469.068a.703.703 0 0 1-.392-1.35c.28-.082.57-.124.86-.124a3.043 3.043 0 1 1 0 6.086M17.987 21.094H5.395a.7.7 0 0 1-.697-.612L4.5 18.968a3.23 3.23 0 0 1 1.798-3.328l3.164-1.53a.702.702 0 1 1 .612 1.265l-3.162 1.529a1.82 1.82 0 0 0-1.017 1.88l.118.901h11.356l.118-.9a1.82 1.82 0 0 0-1.017-1.881l-3.162-1.529a.703.703 0 1 1 .61-1.266l3.162 1.529a3.23 3.23 0 0 1 1.799 3.328l-.197 1.514a.7.7 0 0 1-.695.614"/></svg>
